X:1
T:Smooth One
L:1/8
M:4/4
K:F
|:"Bo7/G"d_A3 "Bb6"FGFD|"F6/A"FA3 z4|"Bo7"d_A3 "Bb6"FGFD|"F6/A"FD3 z4|
"Bo7"d_A3 "Bb6"FGFD|"F6/A"FA3 "Dm7"z2(3D^C=C|"G9"=B,DFA "C9"DD2-D-|1"C+9"D6z2:|2"F6"D4 z2 "F7"FG|]
|"Bb6"G2FD-D2 FG-|"Bbo7"G2 F_A z2 Bc-|"F6/C"c2 BA-A2 FG-|"Cm7"G6 "F9"FG-|
"Bb6"G2 FD-D2 FG|"Bbo7"G2 F_A z4|"F6/C"Acdc "D7b9"_ecdB|"G+7"c2 BA-"C7b9"AF-F2|
"Bo7"d_A3 "Bb6"FGFD|"F6/A"FA3 z4|"Bo7"d_A3 "Bb6"FGFD|"F6/A"FD3 z4|
"Bo7"d_A3 "Bb6"FGFD|"F6/A"FA3 z2(3D^C=C|"G9"=B,DFA "C9"DD2-D-|"C+9"D6z2|]
